src/lib/packages/icons/src/assets/line/chart-pie.svg

<svg width="24" height="24" viewBox="0 0 24 24" fill="none" xmlns="http://www.w3.org/2000/svg">
<path d="M21.733 9.769C21.191 5.894 18.106 2.8089 14.231 2.2679C13.737 2.1979 13.234 2.34891 12.853 2.67891C12.469 3.01291 12.249 3.49393 12.249 4.00093V10.009C12.249 10.969 13.03 11.7509 13.991 11.7509H20C20.506 11.7509 20.988 11.5309 21.321 11.1479C21.652 10.7669 21.802 10.265 21.733 9.769ZM20.189 10.1619C20.161 10.1949 20.098 10.25 20 10.25H13.992C13.858 10.25 13.75 10.142 13.75 10.008V3.99995C13.75 3.90095 13.805 3.83801 13.838 3.81001C13.865 3.78601 13.918 3.74995 13.992 3.74995C14.002 3.74995 14.013 3.75091 14.023 3.75191C14.024 3.75191 14.024 3.75191 14.024 3.75191C17.238 4.20091 19.797 6.76091 20.247 9.97591C20.26 10.0659 20.217 10.1309 20.189 10.1619ZM18.044 12.6569H12.093C11.68 12.6569 11.343 12.3209 11.343 11.9069V5.95601C11.343 5.44101 11.114 4.95793 10.715 4.63093C10.324 4.31193 9.81901 4.18294 9.32701 4.28194C7.04501 4.73994 4.996 6.12491 3.705 8.07991C2.4 10.0569 1.95297 12.4489 2.44597 14.8139C3.14097 18.1489 5.84898 20.8569 9.18498 21.5529C9.81298 21.6839 10.443 21.749 11.066 21.749C12.791 21.749 14.466 21.2529 15.919 20.2939C17.874 19.0029 19.259 16.9549 19.717 14.6729C19.816 14.1829 19.69 13.676 19.369 13.285C19.042 12.886 18.559 12.6569 18.044 12.6569ZM15.093 19.0429C13.452 20.1269 11.461 20.4979 9.49199 20.0849C6.73099 19.5089 4.48996 17.268 3.91496 14.508C3.50396 12.537 3.87396 10.548 4.95696 8.90596C6.02896 7.28196 7.729 6.13301 9.622 5.75301C9.634 5.751 9.64398 5.74995 9.65398 5.74995C9.70198 5.74995 9.73899 5.77095 9.76299 5.79195C9.78699 5.81095 9.84197 5.86601 9.84197 5.95601V11.9069C9.84197 13.1479 10.852 14.1569 12.092 14.1569H18.043C18.133 14.1569 18.188 14.2119 18.207 14.2359C18.231 14.2659 18.258 14.315 18.245 14.379C17.866 16.271 16.717 17.9709 15.093 19.0429Z" fill="currentColor"/>
</svg>

<svg xmlns="http://www.w3.org/2000/svg" width="24" height="24" fill="none"><path fill="currentColor" d="M21.733 9.769c-.542-3.875-3.627-6.96-7.502-7.501A1.751 1.751 0 0 0 12.249 4v6.008c0 .96.781 1.742 1.742 1.742H20a1.751 1.751 0 0 0 1.733-1.982Zm-1.544.393a.248.248 0 0 1-.189.088h-6.008a.242.242 0 0 1-.242-.242V4c0-.1.055-.162.088-.19a.233.233 0 0 1 .185-.058h.001a7.337 7.337 0 0 1 6.223 6.224.228.228 0 0 1-.058.186Zm-2.145 2.495h-5.951a.75.75 0 0 1-.75-.75V5.956c0-.515-.229-.998-.628-1.325a1.668 1.668 0 0 0-1.388-.35A8.884 8.884 0 0 0 3.705 8.08c-1.305 1.977-1.752 4.369-1.259 6.734.695 3.335 3.403 6.043 6.739 6.739a9.21 9.21 0 0 0 1.881.196c1.725 0 3.4-.496 4.853-1.455a8.882 8.882 0 0 0 3.798-5.621 1.663 1.663 0 0 0-.348-1.388 1.708 1.708 0 0 0-1.325-.628Zm-2.951 6.386c-1.641 1.084-3.632 1.455-5.601 1.042-2.761-.576-5.002-2.817-5.577-5.577-.411-1.971-.041-3.96 1.042-5.602a7.37 7.37 0 0 1 4.665-3.153.165.165 0 0 1 .141.039.211.211 0 0 1 .079.164v5.95c0 1.242 1.01 2.25 2.25 2.25h5.951c.09 0 .145.056.164.08a.17.17 0 0 1 .038.143 7.365 7.365 0 0 1-3.152 4.664Z"/></svg>
